X:1
T:Mazeppa -- Hornpipe
R:hornpipe
B:Cole's 1000 Fiddle Tunes
M:C|
L:1/8
K:Bb
((3ufga)|vb>ab>f d>FB>d|c>BA>c B>df>b|\
g>ec>g f>dB>d|c>f=e>"4"c' f>^fg>a|
b>ab>f d>FB>d|c>BA>B c>de>f|\
g>ec>g f>ec>f|B2{a}b2B2:|
|:((3uBc^c)|d>BG>B d>BG>d|c>BA>B (3GD^F (3GAB|\
c>A=F>A c>AF>A|G>F=E>G (3FEF (3^FGA|
B>GD>G B>GD>G|B>cA>B (3G^FG (3AB=B|\
c>A=F>A c>ed>c|B2b2B2:|
